!!!COM: Bach, Johann Sebastian
!!!OPR: Die Kunst der Fuge
!!!XEN: The Art of Fugue
!!!OTL:
!!!OMV: 7
!!!SCT: BWV 1080
!!!SCA: Thematisch-systematisches Verzeichnis der musikalischen Werke Johann Sebastian Bach: Bach-Werke-Verzeichnis (Schmieder)
!!!YOR: Bach Gesellschaft Edition xxv,1
!!!EED: Frances Bennion
!!!ENC: Frances Bennion
!!!CDT: 1685/3//-1750/7/28/
!!!OCY: Deutschland
!!!YEC: Copyright (c) 1994, 2000 Center for Computer Assisted Research in the Humanities
!!!YEM: Rights to all derivative editions reserved.
!!!YEM: Refer to licensing agreement for further details.
!!!YEN: United States of America
**kern	**kern	**kern	**kern	**kern
*k[b-]	*k[b-]	*k[b-]	*k[b-]	*k[b-]
*d:	*d:	*d:	*d:	*d:
*clefG	*clefG	*clefG	*clefC	*clefC
*M4/4	*M4/4	*M4/4	*M4/4	*M4/4
=1	=1	=1	=1	=1
1r	1r	1r	4d	1r
.	.	.	8.a	.
.	.	.	16g	.
.	.	.	8.f	.
.	.	.	16e	.
.	.	.	4d	.
=2	=2	=2	=2	=2
2aa	1r	1r	4c#	1r
.	.	.	8.d	.
.	.	.	16e	.
4.dd	.	.	[4f	.
.	.	.	16f]	.
.	.	.	16g	.
8ee	.	.	16f	.
.	.	.	16e	.
=3	=3	=3	=3	=3
4.ff	1r	4dd	16d	1r
.	.	.	16c#	.
.	.	.	8.d	.
.	.	8.a	.	.
.	.	.	16d	.
8gg	.	.	16c	.
.	.	16b	16B	.
2aa	.	8.cc	16A	.
.	.	.	16G#	.
.	.	.	8.A	.
.	.	16dd	.	.
.	.	4ee	.	.
.	.	.	16A	.
.	.	.	16B	.
.	.	.	16c#	.
=4	=4	=4	=4	=4
2bb-	1r	4ff	16d	1r
.	.	.	16c	.
.	.	.	16B-	.
.	.	.	16A	.
.	.	8.ee	16G	.
.	.	.	16F#	.
.	.	.	8.G	.
.	.	16dd	.	.
4.aa	.	[4cc#	.	.
.	.	.	16B-	.
.	.	.	16A	.
.	.	.	16G	.
.	.	16cc#]	8.F	.
.	.	16a	.	.
8gg	.	16b	.	.
.	.	16cc#	16E	.
=5	=5	=5	=5	=5
[2ff	1r	16dd	[4D	1D
.	.	16b-	.	.
.	.	16a	.	.
.	.	16g	.	.
.	.	[4f	16D]	.
.	.	.	16A	.
.	.	.	16B	.
.	.	.	16c#	.
8ff]	.	16f]	[4d	.
.	.	16a	.	.
8ee	.	16b	.	.
.	.	16cc#	.	.
8ff	.	[4dd	16d]	.
.	.	.	16A	.
8gg	.	.	16G	.
.	.	.	16F	.
=6	=6	=6	=6	=6
[4aa	1r	16dd]	4E	2.AA
.	.	16dd	.	.
.	.	16cc	.	.
.	.	16b	.	.
16aa]	.	[4cc	8.A	.
16gg	.	.	.	.
16ff	.	.	.	.
16ee	.	.	16G	.
[4dd	.	16cc]	8.F	.
.	.	16cc	.	.
.	.	16b	.	.
.	.	16a	16E	.
16dd]	.	4g#	4D	4BB
16dd	.	.	.	.
16ee	.	.	.	.
16ff	.	.	.	.
=7	=7	=7	=7	=7
16ee	1r	4a	16C	2.C
16dd	.	.	16D	.
16cc	.	.	8.E	.
16b	.	.	.	.
8a	.	8.ee	.	.
.	.	.	16E	.
8.r	.	.	16F#	.
.	.	16dd	16G#	.
.	.	8.cc	4A	.
16ee	.	.	.	.
16aa	.	.	.	.
16gg	.	16b	.	.
16ff	.	4a	4r	4D
16ee	.	.	.	.
16dd	.	.	.	.
16cc	.	.	.	.
=8	=8	=8	=8	=8
4b	1r	4g#	16r	1E
.	.	.	16B	.
.	.	.	16e	.
.	.	.	16d	.
4r	.	8.a	16c	.
.	.	.	16B	.
.	.	.	16A	.
.	.	16b	16G#	.
16r	.	[4cc	8A	.
16dd	.	.	.	.
16ee	.	.	4.r	.
16ff	.	.	.	.
[4gg	.	16cc]	.	.
.	.	16dd	.	.
.	.	16cc	.	.
.	.	16b-	.	.
=9	=9	=9	=9	=9
16gg]	1r	[4a	4A	1F
16gg	.	.	.	.
16ff	.	.	.	.
16ee	.	.	.	.
[4ff	.	16a]	8.D	.
.	.	16a	.	.
.	.	16b	.	.
.	.	16cc#	16E	.
16ff]	.	[4dd	8.F	.
16gg	.	.	.	.
16ff	.	.	.	.
16ee	.	.	16G	.
[4dd	.	16dd]	4A	.
.	.	16cc	.	.
.	.	16b-	.	.
.	.	16a	.	.
=10	=10	=10	=10	=10
16dd]	1r	[4g	4B-	2.E
16ff	.	.	.	.
16ee	.	.	.	.
16dd	.	.	.	.
[4cc#	.	16g]	8.A	.
.	.	16e	.	.
.	.	16f	.	.
.	.	16g	16G	.
16cc#]	.	[4a	[4F	.
16cc#	.	.	.	.
16dd	.	.	.	.
16ee	.	.	.	.
[4ff	.	16a]	16F]	4D
.	.	16g	16E	.
.	.	16a	16F	.
.	.	16b	16G	.
=11	=11	=11	=11	=11
16ff]	1r	8cc	[4A	[1C
16ee	.	.	.	.
16ff	.	16dd	.	.
16gg	.	16ee	.	.
4aa	.	[4ff	16A]	.
.	.	.	16G	.
.	.	.	16A	.
.	.	.	16B	.
[4gg	.	16ff]	8.c	.
.	.	16ff	.	.
.	.	16ee-	.	.
.	.	16dd	16G	.
16gg]	.	[4ee-	8.c	.
16bb-	.	.	.	.
16aa	.	.	.	.
16gg	.	.	16B-	.
=12	=12	=12	=12	=12
[4ff#	1r	16ee-]	[4A	4C]
.	.	16dd	.	.
.	.	16cc	.	.
.	.	16b-	.	.
16ff#]	.	[4cc	16A]	4AA
16ff#	.	.	16D	.
16gg	.	.	16E	.
16aa	.	.	16F#	.
4dd	.	16cc]	[4G	4BB-
.	.	16cc	.	.
.	.	16b-	.	.
.	.	16a	.	.
4ee-	.	8g	16G]	4C
.	.	.	16F#	.
.	.	8cc	16G	.
.	.	.	16A	.
=13	=13	=13	=13	=13
4dd	1r	16f#	[4B-	2D
.	.	16d	.	.
.	.	16e	.	.
.	.	16f#	.	.
4r	.	[4g	16B-]	.
.	.	.	16A	.
.	.	.	16B-	.
.	.	.	16c	.
4a	.	16g]	[4d	2r
.	.	16g	.	.
.	.	16f#	.	.
.	.	16e	.	.
8.dd	.	4f#	16d]	.
.	.	.	16c	.
.	.	.	16B-	.
16cc	.	.	16A	.
=14	=14	=14	=14	=14
8.b-	1r	8.g	[4G	16r
.	.	.	.	16GG
.	.	.	.	16AA
16a	.	16f	.	16BB-
4g	.	4e-	16G]	[4C
.	.	.	16G	.
.	.	.	16A	.
.	.	.	16B-	.
4f#	.	2d	4A	16C]
.	.	.	.	16AA
.	.	.	.	16D
.	.	.	.	16C
8.g	.	.	4r	16BB-
.	.	.	.	16AA
.	.	.	.	16GG
16a	.	.	.	16FF#
=15	=15	=15	=15	=15
[4b-	1r	4.G	1r	16GG
.	.	.	.	16BB-
.	.	.	.	16C
.	.	.	.	16D
16b-]	.	.	.	[4E-
16cc	.	.	.	.
16b-	.	8A	.	.
16a	.	.	.	.
[4g	.	8.B-	.	16E-]
.	.	.	.	16E-
.	.	.	.	16D
.	.	16c	.	16C
16g]	.	4d	.	8.BB
16a-	.	.	.	.
16g	.	.	.	.
16f	.	.	.	32AA
.	.	.	.	32BB
=16	=16	=16	=16	=16
16e-	1r	2e-	1r	[4C
16g	.	.	.	.
16a	.	.	.	.
16b-	.	.	.	.
[4cc	.	.	.	16C]
.	.	.	.	16D
.	.	.	.	16E-
.	.	.	.	16F
16cc]	.	4.d	.	4G
16cc	.	.	.	.
16b-	.	.	.	.
16a	.	.	.	.
16b-	.	.	.	8.F
16cc	.	.	.	.
16dd	.	8c	.	.
16ee-	.	.	.	16E-
=17	=17	=17	=17	=17
16ff	1r	[2B-	4B-	[4D
16ee-	.	.	.	.
16dd	.	.	.	.
16cc	.	.	.	.
[4b-	.	.	8.f	16D]
.	.	.	.	16E-
.	.	.	.	16D
.	.	.	16e-	16C
16b-]	.	8B-]	8.d	8BB-
16a	.	.	.	.
16g	.	8A	.	8D
16f	.	.	16c	.
16e	.	8B-	4B-	4GG
16g	.	.	.	.
16f	.	8c	.	.
16e	.	.	.	.
=18	=18	=18	=18	=18
4.f	1r	4d	4A	16FF
.	.	.	.	16AA
.	.	.	.	16BB-
.	.	.	.	16C
.	.	2r	8.B-	16D
.	.	.	.	16C
8.b-	.	.	.	16D
.	.	.	16c	16E-
.	.	.	[4d	[2F
16b-	.	.	.	.
16a	.	.	.	.
16g	.	.	.	.
8a	.	8r	16d]	.
.	.	.	16e-	.
16b	.	8a-	16d	.
16cc	.	.	16c	.
=19	=19	=19	=19	=19
16dd	1r	8g	16B	4F_
16b	.	.	16d	.
16cc	.	4r	16e-	.
16dd	.	.	16f	.
8g	.	.	4.g	16F]
.	.	.	.	16E-
8ee-	.	8.cc	.	16D
.	.	.	.	16C
4.dd	.	.	.	2G
.	.	16cc	.	.
.	.	16b-	8.d	.
.	.	16a	.	.
.	.	[4b-	.	.
.	.	.	16d	.
8ee	.	.	16c	.
.	.	.	16B-	.
=20	=20	=20	=20	=20
[2ff	1r	16b-]	4c	4F]
.	.	16b-	.	.
.	.	16a	.	.
.	.	16g	.	.
.	.	16a	8.f	4r
.	.	16b-	.	.
.	.	8.cc	.	.
.	.	.	16e-	.
8.ff]	.	.	8.d	4F
.	.	16b-	.	.
.	.	8.a	.	.
16ee-	.	.	16c	.
[4dd	.	.	4B-	8.BB-
.	.	16d	.	.
.	.	[8g	.	.
.	.	.	.	16C
=21	=21	=21	=21	=21
16dd]	1r	8g]	4.A	8.D
16a	.	.	.	.
8.dd	.	16f	.	.
.	.	16g	.	16E-
.	.	[4a	.	2F
16cc	.	.	.	.
16dd	.	.	16B-	.
16ee-	.	.	16c	.
[4ff	.	16a]	[4d	.
.	.	16b-	.	.
.	.	16cc	.	.
.	.	16a	.	.
16ff]	.	[4b-	16d]	[4G
16gg	.	.	16e-	.
16ff	.	.	16d	.
16ee-	.	.	16c	.
=22	=22	=22	=22	=22
[4dd	1r	16b-]	[4B-	8G]
.	.	16b-	.	.
.	.	16a	.	16F
.	.	16g	.	16E-
16dd]	.	[2f	16B-]	[4D
16dd	.	.	16B-	.
16cc	.	.	16A	.
16b-	.	.	16G	.
16a	.	.	8F	16D]
16ee-	.	.	.	16C
8dd	.	.	8.B-	16D
.	.	.	.	16E
[4cc	.	16f]	.	[4F
.	.	16g	16B-	.
.	.	16f	16A	.
.	.	16e	16G	.
=23	=23	=23	=23	=23
16cc]	1r	4f	16A	4F]
16b-	.	.	16G	.
16a	.	.	16F	.
16g	.	.	16E	.
16a	.	8.cc	2.F	16r
16g	.	.	.	16BB-
8f	.	.	.	16AA
.	.	16b-	.	16GG
[4cc	.	8.a	.	16FF
.	.	.	.	16AA
.	.	.	.	16BB-
.	.	16g	.	16C
16cc]	.	4f	.	4D
16b	.	.	.	.
16cc	.	.	.	.
16dd	.	.	.	.
=24	=24	=24	=24	=24
4g	1r	4e	2.c	16r
.	.	.	.	16CC
.	.	.	.	16C
.	.	.	.	16BB-
4r	.	8.f	.	16AA
.	.	.	.	16GG
.	.	.	.	16FF
.	.	16g	.	16EE
4cc	.	[4a	.	16FF
.	.	.	.	16C
.	.	.	.	16F
.	.	.	.	16E
8.f	.	16a]	4B-	[4D
.	.	16b-	.	.
.	.	16a	.	.
16g	.	16g	.	.
=25	=25	=25	=25	=25
8.a	1r	[4f	2.A	16D]
.	.	.	.	16D
.	.	.	.	16C
16b-	.	.	.	16BB-
4cc	.	16f]	.	8.AA
.	.	16g	.	.
.	.	16f	.	.
.	.	16e-	.	16AA
4dd	.	16d	.	8.BB-
.	.	16e	.	.
.	.	8.f	.	.
.	.	.	.	16BB
8.cc	.	.	4G	8.C
.	.	16f	.	.
.	.	[8e	.	.
16b-	.	.	.	16C#
=26	=26	=26	=26	=26
[4a	1r	16e]	1F	8.D
.	.	16e	.	.
.	.	16d	.	.
.	.	16c#	.	16E
16a]	.	4d	.	8.F
16g	.	.	.	.
16a	.	.	.	.
16b-	.	.	.	16G
[4cc	.	16c	.	8.A
.	.	16e	.	.
.	.	16f	.	.
.	.	16g	.	16B-
16cc]	.	4a	.	8.c
16dd	.	.	.	.
16cc	.	.	.	.
16b	.	.	.	16d
=27	=27	=27	=27	=27
16cc	1r	8.g	1E	8G
16dd	.	.	.	.
16ee	.	.	.	2..r
16ff	.	16a	.	.
[4gg	.	16b-	.	.
.	.	16d	.	.
.	.	16c#	.	.
.	.	16B	.	.
16gg]	.	4c#	.	.
16ff	.	.	.	.
16ee	.	.	.	.
16dd	.	.	.	.
4cc#	.	16r	.	.
.	.	16b-	.	.
.	.	16a	.	.
.	.	16g	.	.
=28	=28	=28	=28	=28
4dd	1r	16a	2.F	4D
.	.	16g	.	.
.	.	16f	.	.
.	.	16e	.	.
16r	.	8d	.	8.A
16a	.	.	.	.
16b	.	8.r	.	.
16cc#	.	.	.	16G
16dd	.	.	.	8.F
16ee	.	16a	.	.
4ff	.	16dd	.	.
.	.	16cc	.	16E
.	.	16b-	4G	4D
.	.	16a	.	.
[8ee	.	16b-	.	.
.	.	16g	.	.
=29	=29	=29	=29	=29
16ee]	1r	8e	[1A	4C#
16ee	.	.	.	.
16aa	.	4.r	.	.
16gg	.	.	.	.
16ff	.	.	.	8.D
16ee	.	.	.	.
16dd	.	.	.	.
16cc#	.	.	.	16E
16dd	.	4d	.	[4F
16b-	.	.	.	.
16a	.	.	.	.
16g	.	.	.	.
16f	.	8.a	.	16F]
16e	.	.	.	16G
16d	.	.	.	16F
16c#	.	16g	.	16E
=30	=30	=30	=30	=30
16d	1r	8.f	4A]	4D
16a	.	.	.	.
8.dd	.	.	.	.
.	.	16e	.	.
.	.	4d	4B-	8r
16ff	.	.	.	.
16ee	.	.	.	4G
16dd	.	.	.	.
16ee	.	4c#	4A	.
8aa	.	.	.	.
.	.	.	.	4F
16a	.	.	.	.
16b-	.	8.d	4G	.
16dd	.	.	.	.
16gg	.	.	.	[8E
16g	.	16e	.	.
=31	=31	=31	=31	=31
16a	1r	[4f	4F	8E]
16cc	.	.	.	.
16ff	.	.	.	16D
16ee	.	.	.	16C
8.dd	.	16f]	8r	8.BB
.	.	16g	.	.
.	.	16f	8.G	.
16ee	.	16e	.	16C#
8a	.	4d	.	8D
.	.	.	16A	.
8.dd	.	.	16G	8BB-
.	.	.	16F	.
.	.	4r	8E	8GG
16ee	.	.	.	.
16dd	.	.	[8A	8AA
16cc	.	.	.	.
=32	=32	=32	=32	=32
8ff	1r	1r	16A]	8D
.	.	.	16B-	.
8.b-	.	.	16A	8E
.	.	.	16G	.
.	.	.	16F	[4F
16cc	.	.	16A	.
16b-	.	.	16d	.
16a	.	.	16c	.
8g	.	.	8B-	16F]
.	.	.	.	16A
8.gg	.	.	8B	16G
.	.	.	.	16F
.	.	.	8c	8E
16bb-	.	.	.	.
16aa	.	.	8c#	8A
16gg	.	.	.	.
=33	=33	=33	=33	=33
8ff#	1r	1r	16d	8D
.	.	.	16c	.
8.ff	.	.	16B	8r
.	.	.	16A	.
.	.	.	8B	8G
16aa	.	.	.	.
16gg	.	.	8.B-	8r
16ff	.	.	.	.
8ee	.	.	.	8C
.	.	.	16d	.
8.ee-	.	.	16c	8r
.	.	.	16B-	.
.	.	.	8A	8F
16gg	.	.	.	.
16ff	.	.	[8a	8r
16ee-	.	.	.	.
=34	=34	=34	=34	=34
4dd	1r	1r	16a]	8BB-
.	.	.	16a	.
.	.	.	16g	8.B-
.	.	.	16f	.
8cc#	.	.	8e	.
.	.	.	.	16A
4cc	.	.	8e-	16G
.	.	.	.	16F#
.	.	.	8d	8G
16b-	.	.	8c#	8A
16a	.	.	.	.
16g	.	.	8d	8B-
16ff	.	.	.	.
16ee	.	.	[8g	8G
16dd	.	.	.	.
=35	=35	=35	=35	=35
8.cc#	1r	1a	16g]	[4A
.	.	.	16f	.
.	.	.	16e	.
16dd	.	.	16d	.
8.ee	.	.	8c#	16A]
.	.	.	.	16B-
.	.	.	8e	16A
16cc#	.	.	.	16G
16dd	.	.	8A	8.F
16ff	.	.	.	.
16ee	.	.	4r	.
16dd	.	.	.	16G
16cc#	.	.	.	8A
16ee	.	.	.	.
16a	.	.	8C#	8r
16g	.	.	.	.
=36	=36	=36	=36	=36
16f	1r	2.d	8D	16r
16g	.	.	.	16BB-
16f	.	.	4.r	16AA
16e	.	.	.	16GG
16d	.	.	.	16FF
16f	.	.	.	16EE
16b-	.	.	.	16DD
16a	.	.	.	16CC#
16g	.	.	2D	4DD
16f	.	.	.	.
16e	.	.	.	.
16f	.	.	.	.
16g	.	4e	.	16r
16b-	.	.	.	16G
16dd	.	.	.	16F
16cc#	.	.	.	16E
=37	=37	=37	=37	=37
4dd	1r	2.f	4.A	16D
.	.	.	.	16C#
.	.	.	.	16D
.	.	.	.	16E
16r	.	.	.	4F
16dd	.	.	.	.
16cc	.	.	8G	.
16b-	.	.	.	.
4a	.	.	4.F	16r
.	.	.	.	16FF
.	.	.	.	16GG
.	.	.	.	16AA
16r	.	4g	.	8BB-
16cc#	.	.	.	.
16dd	.	.	8E	8GG
16ee	.	.	.	.
=38	=38	=38	=38	=38
16ff	1r	1a	2D	16D
16gg	.	.	.	16DD
16ff	.	.	.	16D
16ee	.	.	.	16E
4dd	.	.	.	16F
.	.	.	.	16A
.	.	.	.	16G
.	.	.	.	16F
4.aa	.	.	2C#	16E
.	.	.	.	16D
.	.	.	.	16E
.	.	.	.	16F
.	.	.	.	16E
.	.	.	.	16F
8gg	.	.	.	16D
.	.	.	.	16E
=39	=39	=39	=39	=39
4.ff	1r	1b-	4.D	16F
.	.	.	.	16E
.	.	.	.	16F
.	.	.	.	16G
.	.	.	.	16F
.	.	.	.	16E
8ee	.	.	8E	16D
.	.	.	.	16C#
2dd	.	.	[2F	16D
.	.	.	.	16C
.	.	.	.	16BB-
.	.	.	.	16AA
.	.	.	.	16GG
.	.	.	.	16AA
.	.	.	.	16BB-
.	.	.	.	16GG
=40	=40	=40	=40	=40
2cc#	1r	2.a	8F]	16AA
.	.	.	.	16GG
.	.	.	8G	16AA
.	.	.	.	16BB-
.	.	.	8F	16AA
.	.	.	.	16A
.	.	.	8E	16G
.	.	.	.	16A
4dd	.	.	[2D	16F
.	.	.	.	16A
.	.	.	.	16d
.	.	.	.	16c
4ee	.	4g	.	16B-
.	.	.	.	16A
.	.	.	.	16G
.	.	.	.	16B-
=41	=41	=41	=41	=41
[2ff	1r	[1f	4D]	16A
.	.	.	.	16G
.	.	.	.	16F
.	.	.	.	16E
.	.	.	8r	16D
.	.	.	.	16C
.	.	.	8.C#	16BB-
.	.	.	.	16AA
8ff]	.	.	.	4BB-
.	.	.	16E	.
8gg	.	.	16D	.
.	.	.	16C#	.
8ff	.	.	16D	[4AA
.	.	.	16E	.
8ee	.	.	16F	.
.	.	.	16G	.
=42	=42	=42	=42	=42
16dd	1r	4f]	16A	4AA]
16a	.	.	16G	.
8.dd	.	.	16F	.
.	.	.	16G	.
.	.	4e	4A	2.r
16ee	.	.	.	.
16dd	.	.	.	.
16cc#	.	.	.	.
8dd	.	4f	16r	.
.	.	.	16e-	.
8aa	.	.	16d	.
.	.	.	16c	.
8.dd	.	4g	16B-	.
.	.	.	16A	.
.	.	.	8G	.
16ee	.	.	.	.
=43	=43	=43	=43	=43
8.ff	1r	4a	4d	16r
.	.	.	.	16B-
.	.	.	.	16A
16gg	.	.	.	16G
4aa	.	8.d	8r	16F
.	.	.	.	16E
.	.	.	8.d	8D
.	.	16e	.	.
4bb-	.	8.f	.	2r
.	.	.	16c#	.
.	.	.	16d	.
.	.	16g	16e	.
8.aa	.	4a	16f	.
.	.	.	16g	.
.	.	.	16f	.
16gg	.	.	16e	.
=44	=44	=44	=44	=44
[4ff	1r	4b-	4d	16r
.	.	.	.	16G
.	.	.	.	16A
.	.	.	.	16B-
16ff]	.	8.a	[2.c	8c
16ee	.	.	.	.
16ff	.	.	.	8C
16gg	.	16g	.	.
16aa	.	[4f	.	8F
16ff	.	.	.	.
16ee	.	.	.	8G
16dd	.	.	.	.
8cc	.	16f]	.	8A
.	.	16e	.	.
8r	.	16f	.	8G
.	.	16g	.	.
=45	=45	=45	=45	=45
1r	1r	4a	16c]	4F#
.	.	.	16e-	.
.	.	.	16d	.
.	.	.	16c	.
.	.	8.dd	8.B-	16r
.	.	.	.	16D
.	.	.	.	16E
.	.	16cc	16A	16F#
.	.	8.b-	4G	16G
.	.	.	.	16D
.	.	.	.	16G
.	.	16a	.	16F
.	.	4g	8r	16E-
.	.	.	.	16D
.	.	.	8e-	16C
.	.	.	.	16BB-
=46	=46	=46	=46	=46
1r	1r	4f#	8A	16C
.	.	.	.	16E-
.	.	.	8r	16D
.	.	.	.	16C
.	.	8.g	4d	16BB-
.	.	.	.	16AA
.	.	.	.	16GG
.	.	16a	.	16FF#
.	.	[4b-	8.G	16GG
.	.	.	.	16D
.	.	.	.	8.G
.	.	.	16A	.
.	.	16b-]	8.B-	.
.	.	16cc	.	16F#
.	.	16b-	.	16G
.	.	16a	16c	16A
=47	=47	=47	=47	=47
1r	1r	[4g	4d	16B-
.	.	.	.	16G
.	.	.	.	16A
.	.	.	.	16B-
.	.	16g]	4e-	8c
.	.	16f#	.	.
.	.	16g	.	8C
.	.	16a	.	.
.	.	16b-	8.d	4G
.	.	16cc	.	.
.	.	16b-	.	.
.	.	16a	16c	.
.	.	16g	[4B-	8r
.	.	16f	.	.
.	.	16e	.	8GG
.	.	16d	.	.
=48	=48	=48	=48	=48
1r	1r	[4e	16B-]	8.C
.	.	.	16G	.
.	.	.	16A	.
.	.	.	16B-	16BB-
.	.	16e]	[4c	8.AA
.	.	16e	.	.
.	.	16f	.	.
.	.	16g	.	16GG
.	.	8a	16c]	4FF
.	.	.	16c	.
.	.	4d	16B-	.
.	.	.	16A	.
.	.	.	16G	4EE
.	.	.	16F	.
.	.	16c	16E	.
.	.	16B-	16D	.
=49	=49	=49	=49	=49
1r	1r	16A	4C	8.FF
.	.	16c	.	.
.	.	16d	.	.
.	.	16e	.	16GG
.	.	16f	4r	[4AA
.	.	16g	.	.
.	.	16a	.	.
.	.	16b-	.	.
.	.	8cc	16r	16AA]
.	.	.	16d	16BB-
.	.	8.e-	16c	16AA
.	.	.	16B-	16GG
.	.	.	[4A	16FF
.	.	16g	.	16E-
.	.	16f	.	16D
.	.	16e-	.	16C
=50	=50	=50	=50	=50
1dd	1r	4d	16A]	4BB-
.	.	.	16D	.
.	.	.	16E	.
.	.	.	16F#	.
.	.	4r	8G	16r
.	.	.	.	16B-
.	.	.	4..r	16A
.	.	.	.	16G
.	.	16r	.	8F#
.	.	16a	.	.
.	.	16b-	.	8D
.	.	16cc	.	.
.	.	16b-	.	[4G
.	.	16a	16f	.
.	.	16g	16e	.
.	.	16f	16d	.
=51	=51	=51	=51	=51
2.aa	1r	8e	[4c#	16G]
.	.	.	.	16G
.	.	8ee	.	16F
.	.	.	.	16E
.	.	8.a	16c#]	8.F
.	.	.	16A	.
.	.	.	8d	.
.	.	16b	.	16D
.	.	8.cc#	16e	4A
.	.	.	16f	.
.	.	.	16e	.
.	.	16dd	16d	.
4gg	.	4ee	8c#	16r
.	.	.	.	16AA
.	.	.	8r	16BB
.	.	.	.	16C#
=52	=52	=52	=52	=52
2.ff	1r	4ff	16r	4D
.	.	.	16A	.
.	.	.	16B	.
.	.	.	16c#	.
.	.	8.ee	8d	16r
.	.	.	.	16E
.	.	.	8.r	16F
.	.	16dd	.	16G
.	.	[4cc#	.	2A
.	.	.	16B	.
.	.	.	16c#	.
.	.	.	16d	.
4ee	.	16cc#]	16e	.
.	.	16a	16f	.
.	.	16b	16g	.
.	.	16cc#	16a	.
=53	=53	=53	=53	=53
1dd	1r	4dd	4f	16r
.	.	.	.	16B-
.	.	.	.	16A
.	.	.	.	16G
.	.	4.a	4r	16F
.	.	.	.	16E
.	.	.	.	16D
.	.	.	.	16F
.	.	.	16r	2BB-
.	.	.	16D	.
.	.	16g	16E	.
.	.	16a	16F#	.
.	.	8b-	16G	.
.	.	.	16A	.
.	.	[8g	16B-	.
.	.	.	16G	.
=54	=54	=54	=54	=54
1cc#	1r	16g]	8A	4AA
.	.	16a	.	.
.	.	16g	8E	.
.	.	16f	.	.
.	.	16e	4r	16r
.	.	16d	.	16A
.	.	16e	.	16G
.	.	16f	.	16F
.	.	8g	8B-	16E
.	.	.	.	16D
.	.	8b-	8G	16E
.	.	.	.	16F
.	.	4e	4r	16G
.	.	.	.	16B-
.	.	.	.	16A
.	.	.	.	16G
=55	=55	=55	=55	=55
2.dd	1r	8.a	4A	16F
.	.	.	.	16G
.	.	.	.	16F
.	.	16g	.	16E
.	.	8.f	8.d	16D
.	.	.	.	16E
.	.	.	.	8.F
.	.	16e	16c	.
.	.	4d	8.B-	.
.	.	.	.	16A
.	.	.	.	16G
.	.	.	16A	16F
4ee	.	4c#	4G	16E
.	.	.	.	16A
.	.	.	.	16G
.	.	.	.	16A
=56	=56	=56	=56	=56
[1ff	16r	8.d	[4F	4D
.	16dd	.	.	.
.	16cc	.	.	.
.	16b-	16e	.	.
.	[4a	[4f	16F]	2.r
.	.	.	16F	.
.	.	.	16G	.
.	.	.	16A	.
.	16a]	16f]	[4B-	.
.	16b-	16g	.	.
.	16a	16f	.	.
.	16g	16e	.	.
.	8f	[4d	16B-]	.
.	.	.	16c	.
.	16g	.	16B-	.
.	16a	.	16A	.
=57	=57	=57	=57	=57
4ff]	8b-	8d]	8G	16r
.	.	.	.	16A
.	8dd	4b-	4..r	16G
.	.	.	.	16F
4gg	8cc#	.	.	16E
.	.	.	.	16D
.	4ee	16a	.	16C#
.	.	16g	.	16E
4ff	.	8a	.	[2AA
.	.	.	16BB	.
.	4dd	8f	16C#	.
.	.	.	16D	.
4ee	.	8g	16E	.
.	.	.	16F	.
.	8cc#	8e	16G	.
.	.	.	16E	.
=58	=58	=58	=58	=58
[2dd	16dd	8f	8A	16AA]
.	16b-	.	.	16G
.	16a	4r	4r	16F
.	16g	.	.	16E
.	16f	.	.	16D
.	8a	.	.	16C
.	.	4d	4F	16BB-
.	16g#	.	.	16D
16dd]	8b	.	.	4GG#
16ee	.	.	.	.
16dd	4.r	4.r	4.r	.
16cc#	.	.	.	.
16dd	.	.	.	4r
16ee	.	.	.	.
16ff	.	.	.	.
16ee	.	.	.	.
=59	=59	=59	=59	=59
16gg	4.r	4.r	4.r	4.r
16ff	.	.	.	.
16ee	.	.	.	.
16dd	.	.	.	.
16ee	.	.	.	.
16cc#	.	.	.	.
4.dd	8.f	8G#	16D	8BB-
.	.	.	16E	.
.	.	2A	4F	2AA
.	16d	.	.	.
.	16e	.	.	.
.	16f	.	.	.
4cc#	16g	.	4E	.
.	16a	.	.	.
.	16b-	.	.	.
.	16g	.	.	.
=60	=60	=60	=60	=60
4.dd	16f#	[4B-	4D	[1D
.	16a	.	.	.
.	16g	.	.	.
.	16f#	.	.	.
.	4.g	16B-]	8r	.
.	.	16c	.	.
8dd	.	16B-	8d	.
.	.	16A	.	.
8cc#	.	16G	8e	.
.	.	16F#	.	.
8.cc	8b-	16E	8g	.
.	.	16G	.	.
.	4a	4F#	8d	.
16ee-	.	.	.	.
16dd	.	.	8A	.
16cc	.	.	.	.
=61	=61	=61	=61	=61
16b-	4d	2G	4B-	2D]
16a	.	.	.	.
16g	.	.	.	.
8b-	.	.	.	.
.	4c#	.	4E	.
16b-	.	.	.	.
16a	.	.	.	.
16g	.	.	.	.
2f#	2d	2A	2D	2DD
==	==	==	==	==
*-	*-	*-	*-	*-
!!!RWG1: This file contains only pitch and duration data.
!!!RWG2: Transposing instruments are not transposed.
!!!RWG3: Spines may have incompatible meters.
!!!RWG4: Durations of rests and tied notes may be interpreted.
!!!RWG: Key is interpreted using the Humdrum key tool.
!!!AFT: stage1
!!!END: 1997/04/15/
!!format changes:
!!content changes:
!!public access: complete
!!!KEY: 324169711
!!!EMD: Converted from MuseData to Humdrum Dec 19, 2000, by Andreas Kornstaedt using muse2kern.
